src/lib/packages/icons/src/assets/filled/arrow-reply.svg

<svg width="24" height="24" viewBox="0 0 24 24" fill="none" xmlns="http://www.w3.org/2000/svg">
<path d="M11 8.49611C14 8.49611 21 8.99601 21 15.49C21 17.198 20.532 18.6729 19.917 19.7549C19.675 20.1799 19.0259 20.0181 19.0319 19.5281C19.0649 16.9611 18.563 14.491 11 14.491V17.9961C11 18.8911 9.90598 19.3261 9.29098 18.6751L3.363 12.405C2.879 11.893 2.879 11.0931 3.363 10.5811L9.29098 4.31105C9.90598 3.66105 11 4.09601 11 4.99001V8.49611Z" fill="currentColor"/>
</svg>

<svg xmlns="http://www.w3.org/2000/svg" width="24" height="24" fill="none"><path fill="currentColor" d="M11 8.496c3 0 10 .5 10 6.994 0 1.708-.468 3.183-1.083 4.265-.242.425-.891.263-.885-.227.033-2.567-.469-5.037-8.032-5.037v3.505c0 .895-1.094 1.33-1.709.68l-5.928-6.271a1.327 1.327 0 0 1 0-1.824l5.928-6.27C9.906 3.661 11 4.096 11 4.99v3.506Z"/></svg>
